X:2
T:East Of The Sun
C:Brooks Bowman
L:1/4
M:C
I:linebreak $
K:G
"G" (3D D D F2- |"G" F2"F" E2 |"Bm" (3B, B, B, F2- |"Bm" F2"Bb7" =F2 |"Am" (3E E E B2- |$
"Am" B2"Bm" A2 |"Cm" (3c c c _E2- |"Cm" E4 "F7" x4||1"Am" (3c c c d d |"D7" B4 |$
"F#ø" (3F F F"B7" B B |"Em" G3 G |"Em" (3F F F"A7" A A |"Em" F2"A7" E2 |"Am" (3c c c"Bm" d d |$
"C" B B"D7" A2 :|2"Am" c3/2 B/"D7" d3/2 c/ |"F#ø" B A"F7" c3/2 B/ |"Em" G/G/G/G/ B B/B/ |$
"A7" F F c A |"Am" (3C E G"Bm" B2- |"Cm" B A"D" (3c B B |"Bm" d2-"E7" d2 |"Bbm" _d2-"Eb7" d2 |$
"Am" (3c B c E2- |"Am" E F"D7" (3B D E |"G" G4- | G4 |]

